!!!!SEGMENT: pl-kk--kk-i-2--012-001_anonim--missa-puer-natus-quattuor-paribus-kyrie.krn
!!!cenid: 16xx:1621
!!!COM: Anonim
!!!COM-rismid: pe30004985
!!!CDT:
!!!CNT:
!!!OPR: Missa Puer natus quattuor paribus
!!!OTL: Kyrie
!!!OMV: 001
!!!PDT:
!!!AGN: Sacred; Mass
!!!SMS-siglum: PL-Kk
!!!SMS-shelfmark: Kk.I.2
!!!SMS-shelfwork: 012-001 M
!!!NIFC-rismid: 300258028
!!!URL-scan: http://repozytorium.nifc.pl/skany/pl-kk-nut--i-2
!!!ONB-nifc: Części mszy: Kyrie, Gloria, Credo, Sanctus, Agnus Dei; skany: C: 0032-0033; A: 0132-0133; T: 0236; B: 0334;
!!!key:
**kern	**text	**kern	**text	**kern	**text	**kern	**text
*part4	*part4	*part3	*part3	*part2	*part2	*part1	*part1
*staff4	*staff4	*staff3	*staff3	*staff2	*staff2	*staff1	*staff1
*I"BASVS	*	*I"TENOR	*	*I"ALTVS	*	*I"DISCANTVS	*
*I'B	*	*I'T	*	*I'A	*	*I'S	*
*ICvox	*	*ICvox	*	*ICvox	*	*ICvox	*
*Ibass	*	*Itenor	*	*Ialto	*	*Isoprn	*
*clefF4	*	*clefC4	*	*clefC4	*	*clefC3	*
*k[b-]	*	*k[b-]	*	*k[b-]	*	*k[b-]	*
*F:	*	*F:	*	*F:	*	*F:	*
*M3/1	*	*M3/1	*	*M3/1	*	*M3/1	*
=1	=1	=1	=1	=1	=1	=1	=1
!LO:TX:t=P:problem=kreska pseudotaktowa	!	!	!	!	!	!LO:TX:t=P:problem=kreska pseudotaktowa	!
0.G	Kÿ-	0.G	Ky-	0.B-	Ky-	0.d	Ky-
=2	=2	=2	=2	=2	=2	=2	=2
0G	-ri-	0G	-ri-	0B-	-ri-	0d	-ri-
!LO:TX:t=P:problem=kreska pseudotaktowa	!	!LO:TX:t=P:problem=kreska pseudotaktowa	!	!LO:TX:t=P:problem=kreska pseudotaktowa	!	!	!
1G	-e	1G	-e	1B-	-e	1d	-e
=3	=3	=3	=3	=3	=3	=3	=3
0F	e-	0A	e-	0c	e-	0f	e-
!	!	!	!	!	!	!LO:TX:t=P:problem=kreska pseudotaktowa	!
1F	-lei-	1A	-ley-	1c	-ley-	1f	-ley-
=4	=4	=4	=4	=4	=4	=4	=4
0BB-	-son	0B-	-son	0d	-son	0f	-son
!	!	!LO:TX:t=P:problem=kreska pseudotaktowa	!	!LO:TX:t=P:problem=kreska pseudotaktowa	!	!	!
1C	kÿ-	1G	ky-	1c	ky-	1e-X	ky-
=5	=5	=5	=5	=5	=5	=5	=5
0D	ri-	0F	-ri-	0A	-ri-	0d	-ri-
!	!	!LO:TX:t=P:problem=kreska pseudotaktowa	!	!	!	!	!
1D	-e	1F	-e	1A	-e	1d	-e
=6	=6	=6	=6	=6	=6	=6	=6
0BB-	e-	0B-	e-	0d	.	0f	e-
!LO:TX:t=P:problem=kreska pseudotaktowa	!	!LO:TX:t=P:problem=kreska pseudotaktowa	!	!LO:TX:t=P:problem=kreska pseudotaktowa	!	!LO:TX:t=P:problem=kreska pseudotaktowa	!
1E-X	.	1B-	.	1e-X	e-	1g	.
=7	=7	=7	=7	=7	=7	=7	=7
1BB-	-le-	1.B-	-ley-	1d	.	1f	.
!	!	!	!	!LO:TX:t=P:problem=kreska pseudotaktowa	!	!	!
0F	-i-	.	.	0c	-ley-	0f	-ley-
.	.	4A\	.	.	.	.	.
.	.	4G\	.	.	.	.	.
!	!	!LO:TX:t=P:problem=kreska pseudotaktowa	!	!	!	!	!
.	.	1A	.	.	.	.	.
=8	=8	=8	=8	=8	=8	=8	=8
0BB-	-son	0B-	-son	0B-	-son	0d	-son
!LO:TX:t=P:problem=kreska pseudotaktowa	!	!	!	!	!	!LO:TX:t=P:problem=kreska pseudotaktowa	!
1BB-	kÿ-	1F	ky-	1d	ky-	1B-	ky-
=9	=9	=9	=9	=9	=9	=9	=9
0BB-	-ri-	0F	-ri-	0d	-ri-	0B-	-ri-
!	!	!	!	!LO:TX:t=P:problem=kreska pseudotaktowa	!	!	!
!	!	!LO:TX:t=P:problem=kreska pseudotaktowa	!	!LO:SIC:v:t=custos A	!	!LO:TX:t=P:problem=kreska pseudotaktowa	!
1BB-	-e	1F	-e	1d	-e	1B-	-e
!	!	!	!	!LO:PB:g=original	!	!	!
=10	=10	=10	=10	=10	=10	=10	=10
!	!	!	!	!	!	!LO:SIC:v:t=custos B	!
0.FF	e-	1.F	e-	0.A	e-	0.c	e-
.	.	2G/	.	.	.	.	.
!	!	!LO:TX:t=P:problem=kreska pseudotaktowa	!	!	!	!	!
.	.	1A	.	.	.	.	.
!	!	!	!	!	!	!LO:PB:g=original	!
=11	=11	=11	=11	=11	=11	=11	=11
1GG	.	1D	.	1.G	.	1B-	-e-
0D	-lei-	4D/	-ley-	.	.	0d	-ley-
.	.	4E/	.	.	.	.	.
.	.	4F#X/	.	4F#X/	-ley-	.	.
.	.	4G/	.	4E/	.	.	.
!	!	!LO:SIC:v:t=custos B	!	!	!	!	!
!	!	!LO:TX:t=P:problem=kreska pseudotaktowa	!	!LO:TX:t=P:problem=kreska pseudotaktowa	!	!	!
.	.	1A	.	1F#	.	.	.
!	!	!LO:PB:g=original	!	!	!	!	!
=12	=12	=12	=12	=12	=12	=12	=12
0GG	-son	0Bn	-son	0G	-son	0d	-son
!LO:TX:t=P:problem=kreska pseudotaktowa	!	!	!	!	!	!	!
!LO:SIC:v:t=custos FF	!	!LO:TX:t=P:problem=kreska pseudotaktowa	!	!LO:TX:t=P:problem=kreska pseudotaktowa	!	!	!
1BB-	kÿ-	1d	.	1B-	Ky-	1f	ky-
!LO:PB:g=original	!	!	!	!	!	!	!
=13	=13	=13	=13	=13	=13	=13	=13
!	!	!	!	!	!	!LO:TX:t=P:problem=kreska pseudotaktowa	!
*	*	*	*ij	*	*	*	*
0.FF	-ri-	0c	ky-	1.A	-ri-	0.f	-ri-
.	.	.	.	2B-\	-e	.	.
!	!	!	!	!LO:TX:t=P:problem=kreska pseudotaktowa	!	!	!
.	.	1c	-ri-	1c	.	.	.
=14	=14	=14	=14	=14	=14	=14	=14
1GG	-e	1B-	-e	0G	e-	2.B-/	-e
.	.	.	.	.	.	4d\	e-
!LO:TX:t=P:problem=kreska pseudotaktowa	!	!LO:TX:t=P:problem=kreska pseudotaktowa	!	!	!	!LO:TX:t=P:problem=kreska pseudotaktowa	!
0D	lei-	0A	-ley-	.	.	0d	-ley-
.	.	.	.	1F#X	-ley-	.	.
=15	=15	=15	=15	=15	=15	=15	=15
0GG	-son	0Bn,	-son	0G	-son	0d,	-son
!	!	!LO:TX:t=P:problem=kreska pseudotaktowa	!	!LO:TX:t=P:problem=kreska pseudotaktowa	!	!	!
*	*	*	*	*	*	*	*ij
1G	kÿ-	1B	ky-	1G	Ky-	1d	ky-
=16	=16	=16	=16	=16	=16	=16	=16
0D	-ri-	0A	-ri-	0F#X	-rie	0d	-ri-
1G	-e	1B-	-e	1G	e-	1d	-e
=17	=17	=17	=17	=17	=17	=17	=17
0F	le-	0c	e-	0A	-ley-	0f	e-
!	!	!LO:TX:t=P:problem=kreska pseudotaktowa	!	!LO:TX:t=P:problem=kreska pseudotaktowa	!	!LO:TX:t=P:problem=kreska pseudotaktowa	!
1F	-i-	1c	-ley-	1A	.	1f	-ley-
=18	=18	=18	=18	=18	=18	=18	=18
0BB-	-son	0d	-son	0B-	-son	0f	-son
*	*	*	*Xij	*	*	*	*Xij
!	!	!LO:TX:t=P:problem=kreska pseudotaktowa	!	!	!	!	!
1F	e-	1A	e-	1c	e-	1f	e-
=19	=19	=19	=19	=19	=19	=19	=19
1G	-le-	1.G	-ley-	1B-	.	1d	.
0D	-i-	.	.	0A	-ley-	0d	-ley-
.	.	4F#X/	.	.	.	.	.
.	.	4E/	.	.	.	.	.
.	.	1F#	.	.	.	.	.
=20	=20	=20	=20	=20	=20	=20	=20
!	!	!	!	!	!	!LO:N:acc=#	!
0GG;	-son	0G	-son	0G	-son	0Bn	-son
1ryy	.	1ryy	.	1ryy	.	1ryy	.
!	!	!	!	!	!	!LO:PB:g=original	!
!	!	!	!	!LO:PB:g=original	!	!	!
!	!	!LO:PB:g=original	!	!	!	!	!
!LO:PB:g=original	!	!	!	!	!	!	!
=21||	=21||	=21||	=21||	=21||	=21||	=21||	=21||
*M3/1	*	*M3/1	*	*M3/1	*	*M3/1	*
1r	.	1r	.	1r	.	1r	.
1r	.	1r	.	1r	.	1r	.
!LO:TX:t=P:problem=kreska pseudotaktowa	!	!LO:TX:t=P:problem=kreska pseudotaktowa	!	!LO:TX:t=P:problem=kreska pseudotaktowa	!	!LO:TX:t=P:problem=kreska pseudotaktowa	!
1BB-	Cgris-	1d	CHri-	1B-	CH-	1f	CHri-
=22	=22	=22	=22	=22	=22	=22	=22
0BB-	.	0d	-ste	0B-	-ri-	0f	-ste
!	!	!LO:TX:t=P:problem=kreska pseudotaktowa	!	!	!	!	!
1BB-	-e	1d	e-	1B-	-ste	1f	e-
=23	=23	=23	=23	=23	=23	=23	=23
0F	leÿ-	0c	-ley-	0A	e-	0f	-ley-
!	!	!	!	!LO:TX:t=P:problem=kreska pseudotaktowa	!	!LO:TX:t=P:problem=kreska pseudotaktowa	!
1F	-son	1c	-son	1A	-ley-	1f	-son
=24	=24	=24	=24	=24	=24	=24	=24
1G	e-	1B-X	e-	1.G	-son	1d	e-
!LO:TX:t=P:problem=kreska pseudotaktowa	!	!LO:TX:t=P:problem=kreska pseudotaktowa	!	!	!	!	!
0D	-lei-	0A	-ley-	.	.	0d	-ley-
.	.	.	.	4F#X/	E-	.	.
.	.	.	.	4E/	-ley-	.	.
!	!	!	!	!LO:TX:t=P:problem=kreska pseudotaktowa	!	!	!
.	.	.	.	1F#	-son	.	.
=25	=25	=25	=25	=25	=25	=25	=25
0GG	-son	0G,	-so(n)	0G	ch-	0d	-son
!LO:TX:t=P:problem=kreska pseudotaktowa	!	!LO:TX:t=P:problem=kreska pseudotaktowa	!	!	!	!LO:TX:t=P:problem=kreska pseudotaktowa	!
*	*	*	*ij	*	*	*	*
1FF	chris-	1A	Chri-	1c	-ri-	1f	CHr-
=26	=26	=26	=26	=26	=26	=26	=26
0FF	-te	0A	-ste	0c	-ste	0f	-i-
!	!	!	!	!LO:TX:t=P:problem=kreska pseudotaktowa	!	!	!
1FF	e-	1A	e-	1c	e-	1f	-ste
=27	=27	=27	=27	=27	=27	=27	=27
!	!	!	!	!	!	!LO:TX:t=P:problem=kreska pseudotaktowa	!
0C	-lei-	0G	-ley-	0c	-ley-	0.e	e-
!LO:TX:t=P:problem=kreska pseudotaktowa	!	!	!	!	!	!	!
1C	-son	1G	-son	1c	-son	.	.
*	*	*	*Xij	*	*	*	*
=28	=28	=28	=28	=28	=28	=28	=28
1D	e-	1F	e-	1A	E-	1.d	.
!	!	!LO:TX:t=P:problem=kreska pseudotaktowa	!	!LO:TX:t=P:problem=kreska pseudotaktowa	!	!	!
0AA	-lei-	0E	-ley-	0A	-ley-	.	.
.	.	.	.	.	.	4c#X/	.
!	!	!	!	!	!	!LO:TX:b:t=P:problem=# below	!
!	!	!	!	!	!	!LO:N:acc=#	!
.	.	.	.	.	.	4Bn/	.
!	!	!	!	!	!	!LO:TX:t=P:problem=kreska pseudotaktowa	!
.	.	.	.	.	.	1c#X	-ley-
=29	=29	=29	=29	=29	=29	=29	=29
0D,	-son	0D	-son	0A	-son	0d	-son
!	!	!	!	!LO:TX:a:t=P:problem=# above	!	!	!
!LO:TX:t=P:problem=kreska pseudotaktowa	!	!	!	!LO:N:acc=#	!	!	!
*	*	*	*ij	*	*	*	*
1BB-	chris-	1d	chri-	1Bn	chri-	1f	chri-
=30	=30	=30	=30	=30	=30	=30	=30
0BB-	-te	0B-	-ste	0d	-ste	0f	-ste
!	!	!	!	!	!	!LO:TX:t=P:problem=kreska pseudotaktowa	!
!	!	!LO:TX:t=P:problem=kreska pseudotaktowa	!	!LO:TX:t=P:problem=kreska pseudotaktowa	!	!LO:SIC:v:t=custos f	!
1BB-	lei-	1B-	e-	1d	e-	1f	e-
!	!	!	!	!	!	!LO:PB:g=original	!
=31	=31	=31	=31	=31	=31	=31	=31
0FF	-son	0A	-ley-	0c	-ley-	0f	-ley-
!	!	!	!	!LO:TX:t=P:problem=kreska pseudotaktowa	!	!	!
1FF	e-	1A	-son	1c	-son	1f	-son
*	*	*	*Xij	*	*	*	*
=32	=32	=32	=32	=32	=32	=32	=32
1GG	-le-	1.G	e-	1B-	E-	1d	e-
0D	-i-	.	.	0A	-ley-	0d	-ley-
.	.	4F#X/	-ley-	.	.	.	.
.	.	4E/	.	.	.	.	.
.	.	1F#	.	.	.	.	.
=33	=33	=33	=33	=33	=33	=33	=33
!	!	!	!	!LO:N:acc=#	!	!	!
0GG;	-son	0G	-son.	0Bn	-son	0d	-son
1ryy	.	1ryy	.	1ryy	.	1ryy	.
!	!	!LO:PB:g=original	!	!	!	!	!
!LO:PB:g=original	!	!	!	!	!	!	!
=34||	=34||	=34||	=34||	=34||	=34||	=34||	=34||
*M3/1	*	*M3/1	*	*M3/1	*	*M3/1	*
0.G	Kÿ-	0.r	.	0.B-X	Ky-	0.r	.
=35	=35	=35	=35	=35	=35	=35	=35
0G	-ri-	0.r	.	0B-	-ri-	0.r	.
!LO:TX:t=P:problem=kreska pseudotaktowa	!	!	!	!LO:TX:t=P:problem=kreska pseudotaktowa	!	!	!
1G	-e	.	.	1B-	-e	.	.
=36	=36	=36	=36	=36	=36	=36	=36
!	!	!	!	!	!	!LO:TX:t=P:problem=kreska pseudotaktowa	!
0F	e-	0.r	.	0c	e-	0.r	.
!	!	!	!	!LO:TX:t=P:problem=kreska pseudotaktowa	!	!	!
1F	-lei-	.	.	1c	-ley-	.	.
=37	=37	=37	=37	=37	=37	=37	=37
0BB-	-son	0.r	.	1d	-son	1r	.
.	.	.	.	1f	ky-	1r	.
!	!	!	!	!LO:TX:t=P:problem=kreska pseudotaktowa	!	!	!
!LO:TX:t=P:problem=kreska pseudotaktowa	!	!	!	!LO:SIC:v:t=custos B	!	!LO:TX:t=P:problem=kreska pseudotaktowa	!
1BB-	ki-	.	.	1d	-ri-	1d	Ky-
!	!	!	!	!LO:PB:g=original	!	!	!
=38	=38	=38	=38	=38	=38	=38	=38
0BB-	-ri-	0.r	.	2B-\	-e	0d	-ri-
.	.	.	.	2c\	.	.	.
.	.	.	.	2d\	.	.	.
.	.	.	.	2c\	.	.	.
1BB-	-e	.	.	2B-\	.	1d	-e
!	!	!	!	!LO:TX:t=P:problem=kreska pseudotaktowa	!	!	!
.	.	.	.	2A\	.	.	.
=39	=39	=39	=39	=39	=39	=39	=39
!	!	!LO:TX:t=P:problem=kreska pseudotaktowa	!	!	!	!	!
0C	e-	0.r	.	0G	.	0e	e-
!LO:TX:t=P:problem=kreska pseudotaktowa	!	!	!	!	!	!	!
1C	-lei-	.	.	1c	ley-	1e	-ley-
=40	=40	=40	=40	=40	=40	=40	=40
!	!	!	!	!LO:TX:t=P:problem=kreska pseudotaktowa	!	!	!
1D	-son	1r	.	0.A	-son	1f	-son
1F	ki-	1r	.	.	.	1a	ky-
!	!	!LO:TX:t=P:problem=kreska pseudotaktowa	!	!	!	!LO:TX:t=P:problem=kreska pseudotaktowa	!
1D	-ri-	1F	Ky-	.	.	1f	-ri-
=41	=41	=41	=41	=41	=41	=41	=41
2BB-/	-e	0F	-ri-	0.B-	Ky-	2d\	-e
2C/	.	.	.	.	.	2e\	.
2D/	.	.	.	.	.	2f\	.
2C/	.	.	.	.	.	2e\	.
2BB-/	.	1F	-e	.	.	2d\	.
!LO:TX:t=P:problem=kreska pseudotaktowa	!	!	!	!	!	!LO:SIC:v:t=custos d	!
2AA/	.	.	.	.	.	2c/	.
!	!	!	!	!	!	!LO:PB:g=original	!
=42	=42	=42	=42	=42	=42	=42	=42
0GG	.	0G	e-	0B-	-ri-	0d	e-
!LO:TX:t=P:problem=kreska pseudotaktowa	!	!	!	!	!	!	!
!LO:SIC:v:t=custos F	!	!LO:TX:t=P:problem=kreska pseudotaktowa	!	!LO:TX:t=P:problem=kreska pseudotaktowa	!	!	!
1C	lei-	1G	-ley-	1G	-e	1e	-ley-
!LO:PB:g=original	!	!	!	!	!	!	!
=43	=43	=43	=43	=43	=43	=43	=43
1F	-son	1A,	-so(n)	1F	e-	0c	-son
1C	ki-	1c	ky-	1E	.	.	.
!LO:TX:t=P:problem=kreska pseudotaktowa	!	!LO:TX:t=P:problem=kreska pseudotaktowa	!	!	!	!LO:TX:t=P:problem=kreska pseudotaktowa	!
1D	-ri-	1A	-ri-	1F	-ley-	1f	ky-
=44	=44	=44	=44	=44	=44	=44	=44
2D\	-e	2F/	-e	0.A	-son	0f	-ri-
2E\	.	2G/	.	.	.	.	.
2F\	.	2A/	.	.	.	.	.
2E\	.	2G/	.	.	.	.	.
2D\	.	2F/	.	.	.	1f	-e
!LO:TX:t=P:problem=kreska pseudotaktowa	!	!LO:TX:t=P:problem=kreska pseudotaktowa	!	!	!	!	!
2C\	.	2E/	.	.	.	.	.
=45	=45	=45	=45	=45	=45	=45	=45
*	*	*lig	*	*	*	*	*
2BB-/	.	1D	e-	0.r	.	0g	ley-
2AA/	.	.	.	.	.	.	.
1GG	le-	1G	.	.	.	.	.
*	*	*Xlig	*	*	*	*	*
!	!	!LO:TX:t=P:problem=kreska pseudotaktowa	!	!	!	!LO:TX:t=P:problem=kreska pseudotaktowa	!
1C	-i-	1E	-ley-	.	.	1g	-son
=46	=46	=46	=46	=46	=46	=46	=46
0FF	-son	1F	-son	1r	.	1a	ky-
.	.	1r	.	1r	.	1f	-ri-
!LO:TX:t=P:problem=kreska pseudotaktowa	!	!LO:TX:t=P:problem=kreska pseudotaktowa	!	!LO:TX:t=P:problem=kreska pseudotaktowa	!	!LO:TX:t=P:problem=kreska pseudotaktowa	!
*	*	*	*ij	*	*	*	*
1BB-	ki-	1B-	ky-	1F	Ky-	1d	-e
=47	=47	=47	=47	=47	=47	=47	=47
1FF	-ri-	0A	-ri-	0F	-ri-	2f\	e-
.	.	.	.	.	.	2g\	.
1F	-e	.	.	.	.	2a\	.
.	.	.	.	.	.	2g\	.
!	!	!LO:TX:t=P:problem=kreska pseudotaktowa	!	!	!	!	!
1D	lei-	1A	-e	1F	-e	2f\	.
!	!	!	!	!	!	!LO:TX:t=P:problem=kreska pseudotaktowa	!
.	.	.	.	.	.	2e\	.
!	!	!LO:SIC:v:t=custos G	!	!	!	!	!
!	!	!LO:PB:g=original	!	!	!	!	!
=48	=48	=48	=48	=48	=48	=48	=48
!LO:TX:t=P:problem=kreska pseudotaktowa	!	!	!	!	!	!	!
0.G	-son	2G/	e-	0G	e-	0d	.
.	.	2A/	.	.	.	.	.
.	.	2B-/	.	.	.	.	.
.	.	2A/	.	.	.	.	.
!	!	!	!	!LO:TX:t=P:problem=kreska pseudotaktowa	!	!	!
!	!	!	!	!LO:SIC:v:t=custos A	!	!	!
.	.	2G/	.	1G	-ley-	1g	-ley-
!	!	!LO:TX:t=P:problem=kreska pseudotaktowa	!	!	!	!	!
.	.	2F/	.	.	.	.	.
!	!	!	!	!LO:PB:g=original	!	!	!
=49	=49	=49	=49	=49	=49	=49	=49
!	!	!	!	!	!	!LO:TX:t=P:problem=kreska pseudotaktowa	!
!	!	!	!	!	!	!LO:SIC:v:t=custos d	!
1r	.	1E	-ley-	1A	-son	0.c	-son
!	!	!LO:TX:t=P:problem=kreska pseudotaktowa	!	!	!	!	!
1F	ki-	0F,	-son	1c	ky-	.	.
!LO:TX:t=P:problem=kreska pseudotaktowa	!	!	!	!LO:TX:t=P:problem=kreska pseudotaktowa	!	!	!
1F	-ri-	.	.	1A	-ri-	.	.
!	!	!	!	!	!	!LO:PB:g=original	!
=50	=50	=50	=50	=50	=50	=50	=50
!	!	!LO:TX:t=P:problem=kreska pseudotaktowa	!	!	!	!	!
0D	-e	0.A	ky-	2F/	-e	2d\	E-
.	.	.	.	2G/	.	2e\	.
.	.	.	.	2A/	.	2f\	.
.	.	.	.	2G/	.	2g\	.
1C	e-	.	.	2F/	.	0a	.
!	!	!	!	!LO:TX:t=P:problem=kreska pseudotaktowa	!	!	!
.	.	.	.	2E/	.	.	.
=51	=51	=51	=51	=51	=51	=51	=51
!LO:TX:t=P:problem=kreska pseudotaktowa	!	!	!	!	!	!	!
!LO:SIC:v:t=custos D	!	!	!	!	!	!	!
0.BB-	-lei-	0.B-	-ri-	0D	e-	.	.
.	.	.	.	.	.	0g	.
.	.	.	.	0d	-ley-	.	.
!LO:PB:g=original	!	!	!	!	!	!	!
=52	=52	=52	=52	=52	=52	=52	=52
!LO:TX:t=P:problem=kreska pseudotaktowa	!	!LO:TX:t=P:problem=kreska pseudotaktowa	!	!	!	!	!
0.D	.	0.A	-e	.	.	0g	-le-
.	.	.	.	0A	-son	.	.
!	!	!	!	!	!	!LO:TX:t=P:problem=kreska pseudotaktowa	!
.	.	.	.	.	.	1f#X	-y-
=53	=53	=53	=53	=53	=53	=53	=53
0GG,	-son	0G	e-	0Bn	.	0g	-son
!	!	!	!	!LO:TX:t=P:problem=kreska pseudotaktowa	!	!	!
1GG	ki-	1G	-ley-	1B	Ky-	1d	ky-
=54	=54	=54	=54	=54	=54	=54	=54
0GG	-ri-	0G,	-son	0Bn	-ri-	0d	-ri-
!LO:TX:t=P:problem=kreska pseudotaktowa	!	!LO:TX:t=P:problem=kreska pseudotaktowa	!	!	!	!LO:TX:t=P:problem=kreska pseudotaktowa	!
1GG	-e	1G	ky-	1B	-e	1d	-e
=55	=55	=55	=55	=55	=55	=55	=55
0FF	e-	0A	-ri-	0c	e-	0A	e-
!	!	!	!	!LO:TX:t=P:problem=kreska pseudotaktowa	!	!	!
1FF	-le-	1A	-e	1c	-ley-	1F	-ley-
=56	=56	=56	=56	=56	=56	=56	=56
0BB-,	-son	0B-	e-	0d	-son	0f	-son
!	!	!	!	!	!	!LO:TX:t=P:problem=kreska pseudotaktowa	!
1C	ki-	1G	-ley-	1c	Ky-	1e-X	ky-
=57	=57	=57	=57	=57	=57	=57	=57
0D	-ri-	0d,	-son	0A	-ri-	0d	-ri-
!LO:TX:t=P:problem=kreska pseudotaktowa	!	!LO:TX:t=P:problem=kreska pseudotaktowa	!	!LO:TX:t=P:problem=kreska pseudotaktowa	!	!	!
1D	-e	1f	ky-	1A	-e	1d	-e
=58	=58	=58	=58	=58	=58	=58	=58
0BB-	e-	0B-	-ri-	0d	e-	0f	e-
!	!	!LO:TX:t=P:problem=kreska pseudotaktowa	!	!LO:SIC:v:t=custos d	!	!LO:SIC:v:t=custos f	!
1E-X	-le-	1B-	-e	1e-X	.	1g	.
!	!	!	!	!	!	!LO:PB:g=original	!
!	!	!	!	!LO:PB:g=original	!	!	!
=59	=59	=59	=59	=59	=59	=59	=59
1F	-i-	1.B-	e-	1d	.	1f	.
0F	.	.	.	0c	-ley-	0f	-ley-
.	.	4A\	-ley-	.	.	.	.
.	.	4G\	.	.	.	.	.
!	!	!LO:TX:t=P:problem=kreska pseudotaktowa	!	!	!	!	!
.	.	1A	.	.	.	.	.
!	!	!LO:SIC:v:t=custos B-	!	!	!	!	!
!	!	!LO:PB:g=original	!	!	!	!	!
=60	=60	=60	=60	=60	=60	=60	=60
!LO:TX:t=P:problem=kreska pseudotaktowa	!	!	!	!LO:TX:t=P:problem=kreska pseudotaktowa	!	!LO:TX:t=P:problem=kreska pseudotaktowa	!
0.BB-,	-son	0B-	-son	0.B-	-son	0.d	-son
!	!	!LO:TX:t=P:problem=kreska pseudotaktowa	!	!	!	!	!
.	.	1d	ky-	.	.	.	.
=61	=61	=61	=61	=61	=61	=61	=61
1BB-	ki-	0d	-ri-	0.r	.	0.r	.
1D	-ri-	.	.	.	.	.	.
1E	-e	1d	-e	.	.	.	.
=62	=62	=62	=62	=62	=62	=62	=62
*lig	*	*	*	*	*	*	*
!	!	!LO:TX:t=P:problem=kreska pseudotaktowa	!	!LO:TX:t=P:problem=kreska pseudotaktowa	!	!	!
*	*	*	*	*	*	*	*ij
1F	e-	0.c	e-	0.r	.	1c	ky-
1E	.	.	.	.	.	1e	-ri-
*Xlig	*	*	*	*	*	*	*
!LO:TX:t=P:problem=kreska pseudotaktowa	!	!	!	!	!	!LO:TX:t=P:problem=kreska pseudotaktowa	!
1D	.	.	.	.	.	1f	-e
=63	=63	=63	=63	=63	=63	=63	=63
*lig	*	*	*	*	*	*	*
1E-X	.	1B-	-ley-	1r	.	0g	e-
1C	.	0A	.	1r	.	.	.
*Xlig	*	*	*	*	*	*	*
!	!	!	!	!LO:TX:t=P:problem=kreska pseudotaktowa	!	!	!
1D	-lei-	.	.	1d	Ky-	1f#X	-ley-
=64	=64	=64	=64	=64	=64	=64	=64
!LO:TX:t=P:problem=kreska pseudotaktowa	!	!	!	!	!	!	!
!LO:SIC:v:t=custos C	!	!LO:TX:t=P:problem=kreska pseudotaktowa	!	!	!	!	!
0.GG	-son	0.G	-son	0d	-ri-	1g	-son
*	*	*	*Xij	*	*	*	*
.	.	.	.	.	.	1d	ky-
!	!	!	!	!	!	!LO:TX:t=P:problem=kreska pseudotaktowa	!
.	.	.	.	1d	-e	1e	-ri-
!LO:PB:g=original	!	!	!	!	!	!	!
=65	=65	=65	=65	=65	=65	=65	=65
!	!	!	!	!LO:TX:t=P:problem=kreska pseudotaktowa	!	!	!
1r	.	1C	ky-	0.c	e-	0.g	-e
1C	ki-	1E	-ri-	.	.	.	.
!LO:TX:t=P:problem=kreska pseudotaktowa	!	!LO:TX:t=P:problem=kreska pseudotaktowa	!	!	!	!	!
1D	-ri-	1F	-e	.	.	.	.
=66	=66	=66	=66	=66	=66	=66	=66
*lig	*	*	*	*	*	*	*
1E-X	-e	0G	e-	1B-	-ley-	0e-X	e-
1C	.	.	.	0A	.	.	.
*Xlig	*	*	*	*	*	*	*
!LO:TX:t=P:problem=kreska pseudotaktowa	!	!LO:TX:t=P:problem=kreska pseudotaktowa	!	!	!	!	!
1D	lei-	1F#X	-ley-	.	.	1d	-ley-
=67	=67	=67	=67	=67	=67	=67	=67
0GG	-son	0G,	-son	0G,	-son	0B-	-son
*	*	*	*	*	*	*	*Xij
!	!	!	!	!	!	!LO:TX:t=P:problem=kreska pseudotaktowa	!
!	!	!LO:TX:t=P:problem=kreska pseudotaktowa	!	!LO:TX:t=P:problem=kreska pseudotaktowa	!	!LO:SIC:v:t=custos d	!
*	*	*	*ij	*	*	*	*
1G	ki-	1G	ky-	1B-	Ky-	1d	ky-
!	!	!	!	!	!	!LO:PB:g=original	!
=68	=68	=68	=68	=68	=68	=68	=68
0D	-ri-	0F#X	-ri-	0A	-ri-	0d	-ri-
!LO:TX:t=P:problem=kreska pseudotaktowa	!	!LO:TX:t=P:problem=kreska pseudotaktowa	!	!	!	!	!
1GG	-e	1G	-e	1B-	-e	1d	-e
=69	=69	=69	=69	=69	=69	=69	=69
0FF	e-	0A	e-	0c	e-	0f	e-
!	!	!LO:TX:t=P:problem=kreska pseudotaktowa	!	!LO:TX:t=P:problem=kreska pseudotaktowa	!	!LO:TX:t=P:problem=kreska pseudotaktowa	!
1FF	-lei-	1A	-ley-	1c	-ley-	1f	-ley-
=70	=70	=70	=70	=70	=70	=70	=70
0BB-	.	0D,	-son	0d	-son	0f	-son
!LO:TX:t=P:problem=kreska pseudotaktowa	!	!LO:TX:t=P:problem=kreska pseudotaktowa	!	!	!	!	!
1FF	-son	1A	ky-	1c	.	1f	e-
=71	=71	=71	=71	=71	=71	=71	=71
1GG	e-	1D	-ri-	1B-	.	1B-	.
!	!	!	!	!LO:TX:t=P:problem=kreska pseudotaktowa	!	!	!
0D	-lei-	4D/	-e	0A	.	0d	-ley-
.	.	4E/	.	.	.	.	.
.	.	4F/	.	.	.	.	.
.	.	4G/	.	.	.	.	.
!	!	!LO:TX:t=P:problem=kreska pseudotaktowa	!	!	!	!	!
.	.	1A	ley-	.	.	.	.
!	!	!LO:SIC:v:t=custos B	!	!	!	!	!
!	!	!LO:PB:g=original	!	!	!	!	!
=72	=72	=72	=72	=72	=72	=72	=72
0GG	-son	0Bn,	-son	0G	.	0d	-son
!	!	!	!	!LO:TX:t=P:problem=kreska pseudotaktowa	!	!	!
!	!	!	!	!LO:N:acc=#	!	!	!
!LO:TX:t=P:problem=kreska pseudotaktowa	!	!LO:TX:t=P:problem=kreska pseudotaktowa	!	!LO:SIC:v:t=custos A	!	!LO:TX:t=P:problem=kreska pseudotaktowa	!
*	*	*	*	*	*	*	*ij
1GG	ki-	1G	ky-	1Bn	Ky-	1d	ky-
!	!	!	!	!LO:PB:g=original	!	!	!
=73	=73	=73	=73	=73	=73	=73	=73
0D	-ri-	0F#X	-ri-	0A	-ri-	0d	-ri-
1D	-e	1G	-e	1B-	-e	1g	-e
!!linebreak:original
=74	=74	=74	=74	=74	=74	=74	=74
0F	lei-	0c	e-	0c	ley-	0c	e-
!LO:TX:t=P:problem=kreska pseudotaktowa	!	!LO:TX:t=P:problem=kreska pseudotaktowa	!	!LO:TX:t=P:problem=kreska pseudotaktowa	!	!	!
1F	-son	1A	-ley-	1c	-son	1A	-ley-
=75	=75	=75	=75	=75	=75	=75	=75
0FF	ki-	0B-	-son	0d	E-	0d	-son
*	*	*	*Xij	*	*	*	*Xij
!	!	!LO:TX:t=P:problem=kreska pseudotaktowa	!	!	!	!LO:TX:t=P:problem=kreska pseudotaktowa	!
1F	-ri-	1r	.	1c	-le-	1A	e-
=76	=76	=76	=76	=76	=76	=76	=76
0.D	-e	0G	e-	0.B-	-y-	1B-	.
.	.	.	.	.	.	0d	.
!	!	!LO:TX:t=P:problem=kreska pseudotaktowa	!	!	!	!	!
.	.	1D	-ley-	.	.	.	.
=77	=77	=77	=77	=77	=77	=77	=77
!	!	!LO:TX:t=P:problem=kreska pseudotaktowa	!	!	!	!	!
0.D	lei-	0.d	-son.	0.A	-son.	0.d	-ley-
=78	=78	=78	=78	=78	=78	=78	=78
!	!	!	!	!LO:TX:t=P:problem=fermata powyżej i poniżej, odwrócona	!	!	!
*	*	*	*ij	*	*	*	*
0GG;	-son	1.d	ky-	0G;	.	0d	-son
.	.	2c\	-ri-	.	.	.	.
1ryy	.	2Bn\	-e	1ryy	.	1ryy	.
.	.	2A\	ley-	.	.	.	.
=79	=79	=79	=79	=79	=79	=79	=79
1%3ryy	.	0Bn	-son	1%3ryy	.	1%3ryy	.
*	*	*	*Xij	*	*	*	*
.	.	1ryy	.	.	.	.	.
==	==	==	==	==	==	==	==
*-	*-	*-	*-	*-	*-	*-	*-
!!!system-decoration: [(s1,s2,s3,s4)]
!!!AIN: 1 alto 1 bass 1 soprn 1 tenor
!!!ENC: Filip Voros
!!!END: 2022-01-07
!!!ENC: Jan Barakat
!!!END: 2022-01-07
